assets/sonr-icons/nom-fill.svg

<svg xmlns="http://www.w3.org/2000/svg" width="24" height="24" fill="none"><path fill="currentColor" d="M12 22c5.523 0 10-4.477 10-10S17.523 2 12 2 2 6.477 2 12s4.477 10 10 10m.887-15.871a6.22 6.22 0 0 1 3.771 2.455 28.5 28.5 0 0 0-3.472 1.238c-3.272 1.457-5.847 3.392-7.004 5.069a5.9 5.9 0 0 1-.439-4.43 6.1 6.1 0 0 1 2.714-3.572 6.14 6.14 0 0 1 4.43-.758zm2.714 3.292c.878-.38 1.756-.738 2.674-1.018l-1.197.818a6.26 6.26 0 0 1 .798 3.791 6.2 6.2 0 0 1-1.616 3.532 6.1 6.1 0 0 1-3.392 1.856 6 6 0 0 1-3.812-.559 1.8 1.8 0 0 1-.838-.838c-.878-1.936 2.434-5.328 7.383-7.582"/></svg>

<svg xmlns="http://www.w3.org/2000/svg" width="24" height="24" fill="none" viewBox="0 0 24 24"><path fill="#000" d="M12 22C17.523 22 22 17.523 22 12C22 6.477 17.523 2 12 2C6.477 2 2 6.477 2 12C2 17.523 6.477 22 12 22ZM12.887 6.129C14.403 6.449 15.76 7.326 16.658 8.584C15.461 8.923 14.304 9.342 13.186 9.822C9.914 11.279 7.339 13.214 6.182 14.891C5.464 13.534 5.304 11.937 5.743 10.461C6.162 8.965 7.12 7.707 8.457 6.889C9.774 6.091 11.37 5.811 12.887 6.131V6.129ZM15.601 9.421C16.479 9.041 17.357 8.683 18.275 8.403L17.078 9.221C17.737 10.359 18.016 11.695 17.876 13.012C17.736 14.329 17.158 15.566 16.26 16.544C15.362 17.521 14.165 18.16 12.868 18.4C11.571 18.64 10.234 18.44 9.056 17.841C8.676 17.662 8.397 17.362 8.218 17.003C7.34 15.067 10.652 11.675 15.601 9.421Z"/></svg>
